src/assets/Controle.svg

<svg width="446" height="334" viewBox="0 0 446 334" fill="none" xmlns="http://www.w3.org/2000/svg">
<path d="M104.054 1.36304C90.5885 4.51461 71.3516 16.53 60.5089 28.7424C38.8236 52.3792 19.5867 94.5315 8.91895 141.214C1.39905 173.715 0 187.7 0 227.883C0.174881 296.626 9.09383 324.597 33.2274 332.082C44.245 335.43 48.7919 334.642 60.1592 327.748C74.6743 319.081 95.1354 298.793 116.471 272.005C128.888 256.444 136.233 248.959 140.954 246.792C151.272 242.065 294.675 242.065 304.993 246.792C309.715 248.959 317.06 256.444 329.476 272.005C350.812 298.793 371.273 319.081 385.788 327.748C397.155 334.642 401.702 335.43 412.72 332.082C428.634 327.157 437.553 312.778 442.625 284.02C446.647 261.959 447.171 197.352 443.674 174.7C431.082 93.9406 400.128 31.106 362.529 10.4238C331.925 -6.51591 302.195 -2.97038 262.847 22.2422L244.834 33.8637H222.974H201.113L183.101 22.2422C173.307 15.9391 159.142 8.65106 151.797 5.89343C136.757 0.575141 115.946 -1.39459 104.054 1.36304ZM320.557 59.2733C336.297 68.531 338.57 90.3951 325.279 103.592C310.239 118.365 285.931 105.956 285.931 83.501C285.931 63.2127 304.818 50.0155 320.557 59.2733ZM136.582 77.5918C138.156 78.1827 139.031 83.698 139.38 95.5164L139.905 112.653L154.77 113.638C168.411 114.623 169.81 115.017 171.733 119.547C174.532 125.653 174.532 132.744 172.083 141.017L170.159 147.123H154.595H139.031V163.669C139.031 182.973 137.981 184.745 125.04 186.124C118.744 186.715 115.072 186.124 111.924 183.761C107.902 180.806 107.552 179.427 107.552 163.866V147.123H92.6871C75.5487 147.123 74.3246 145.942 74.3246 129.987C74.3246 115.411 76.0734 113.835 93.5615 113.244L108.426 112.653L109.301 94.9255C110.175 78.1827 110.35 77.1979 114.547 76.016C118.744 74.4402 131.86 75.4251 136.582 77.5918ZM383.34 100.835C390.86 106.35 394.707 115.411 393.833 126.047C391.734 152.442 360.255 160.124 349.588 136.881C343.117 122.699 347.664 105.956 359.906 99.6529C368.125 95.3194 376.345 95.7134 383.34 100.835ZM320.907 134.32C338.92 144.76 337.521 175.488 318.459 183.564C297.298 192.624 278.411 167.806 289.079 145.351C295.025 132.941 309.89 127.82 320.907 134.32Z" fill="#009373"/>
</svg>

<svg xmlns="http://www.w3.org/2000/svg" width="446" height="334" fill="none"><path fill="#009373" d="M104.054 1.363C90.588 4.515 71.352 16.53 60.509 28.743 38.824 52.378 19.587 94.531 8.919 141.213 1.399 173.715 0 187.7 0 227.883c.175 68.743 9.094 96.714 33.227 104.199 11.018 3.348 15.565 2.56 26.932-4.334 14.515-8.667 34.976-28.955 56.312-55.743 12.417-15.561 19.762-23.046 24.483-25.213 10.318-4.727 153.721-4.727 164.039 0 4.722 2.167 12.067 9.652 24.483 25.213 21.336 26.788 41.797 47.076 56.312 55.743 11.367 6.894 15.914 7.682 26.932 4.334 15.914-4.925 24.833-19.304 29.905-48.062 4.022-22.061 4.546-86.668 1.049-109.32-12.592-80.76-43.546-143.594-81.145-164.276-30.604-16.94-60.334-13.394-99.682 11.818l-18.013 11.622h-43.721l-18.012-11.622c-9.794-6.303-23.959-13.59-31.304-16.349-15.04-5.318-35.851-7.288-47.743-4.53m216.503 57.91c15.74 9.258 18.013 31.122 4.722 44.319-15.04 14.773-39.348 2.364-39.348-20.091 0-20.288 18.887-33.485 34.626-24.228M136.582 77.592c1.574.59 2.449 6.106 2.798 17.924l.525 17.137 14.865.985c13.641.985 15.04 1.379 16.963 5.909 2.799 6.106 2.799 13.197.35 21.47l-1.924 6.106h-31.128v16.546c0 19.304-1.05 21.076-13.991 22.455-6.296.591-9.968 0-13.116-2.363-4.022-2.955-4.372-4.334-4.372-19.895v-16.743H92.687c-17.138 0-18.362-1.181-18.362-17.136 0-14.576 1.748-16.152 19.236-16.743l14.865-.591.875-17.728c.874-16.742 1.049-17.727 5.246-18.909 4.197-1.576 17.313-.59 22.035 1.576m246.758 23.243c7.52 5.515 11.367 14.576 10.493 25.212-2.099 26.395-33.578 34.077-44.245 10.834-6.471-14.182-1.924-30.925 10.318-37.228 8.219-4.334 16.439-3.94 23.434 1.182m-62.433 33.485c18.013 10.44 16.614 41.168-2.448 49.244-21.161 9.06-40.048-15.758-29.38-38.213 5.946-12.41 20.811-17.531 31.828-11.031"/></svg>
